**kern	**kern	**dynam
*part1	*part1	*part1
*staff2	*staff1	*
*I"Piano	*	*
*clefF4	*clefG2	*
*k[f#c#g#d#]	*k[f#c#g#d#]	*
=1	=1	=1
*	*^	*
4BB	4.cc##X 4.ee#X	2.a 2.b	.
8B	.	.	.
4d#	4.dd# 4.ff#	.	.
8BB	.	.	.
*	*v	*v	*
=	=	=
4E	2.g# 2.b 2.ee 2.gg#	f
8B	.	.
4e	.	.
8E	.	.
=	=	=
*	*^	*
4GGG# 4GG#	4.dd# 4.ff#	2.g# 2.b#X	.
8B#X	.	.	.
4d#	4ee 4gg#	.	.
8GG#	8dd# 8ff#	.	.
*	*v	*v	*
=	=	=
4CC# 4C#	2.e 2.g# 2.cc# [2.ee	.
8G#	.	.
4c#	.	.
8C#	.	.
=	=	=
*	*^	*
4AA	4.cc# 4.ee]	2.e 2.a	.
8E	.	.	.
4A	4b 4dd#	.	.
8AA	8a 8cc#	.	.
*	*v	*v	*
=	=	=
4EE	2.B 2.e 2.g# 2.b	.
8BB	.	.
4E	.	.
8EE	.	.
=	=	=
*	*^	*
4FFF#	(4.A 4.a	2.c# 2.d#	p
8FF#	.	.	.
4AAA	4G# 4g#	.	.
8AA	8F# 8f#	.	.
*	*v	*v	*
=	=	=
4GGG#	2.G# 2.B#X 2.d# 2.g#	.
8BB#X	.	.
4D#	.	.
8GG#	.	.
=	=	=
*-	*-	*-
!!!system-decoration: {(s1,s2)}
